webpage/images/icons/icon-clients.svg

<svg width="91" height="91" xmlns="http://www.w3.org/2000/svg">

 <g>
  <title>background</title>
  <rect fill="none" id="canvas_background" height="402" width="582" y="-1" x="-1"/>
 </g>
 <g>
  <title>Layer 1</title>
  <path id="svg_3" fill="#F9EFE3" d="m46.177,43.004c7.979,0 14.472,-6.493 14.472,-14.474c0,-7.978 -6.492,-14.468 -14.472,-14.468c-7.978,0 -14.468,6.49 -14.468,14.468c0,7.981 6.49,14.474 14.468,14.474z"/>
  <path id="svg_4" fill="#989690" d="m56.729,40.629c-2.846,2.512 -6.578,4.05 -10.664,4.05c-4.048,0 -7.855,-1.51 -10.693,-3.981c-0.024,0.016 -0.266,0.039 -0.293,0.051c-4.676,2.212 -7.7,6.033 -7.7,10.761l0,26.024l36.851,0l0,-26.027c-0.001,-4.71 -2.741,-8.667 -7.501,-10.878z"/>
  <path id="svg_5" fill="#E0F1F8" d="m19.003,49.796l0,12.663l-15.075,0l0,-14.879c0,-2.742 1.645,-4.767 4.283,-6.018c1.724,1.43 4.086,2.291 6.495,2.291c2.271,0 4.435,-0.771 6.112,-2.057l1.209,0.851c-2.588,2.689 -3.024,6.948 -3.024,7.149zm-4.144,-7.618c-4.564,0 -8.277,-3.715 -8.277,-8.281s3.713,-8.281 8.277,-8.281c4.568,0 8.285,3.715 8.285,8.281s-3.716,8.281 -8.285,8.281z"/>
  <path id="svg_6" fill="#E0F1F8" d="m69.689,42.881l1.324,-0.85c1.679,1.283 3.808,2.055 6.078,2.055c2.409,0 4.709,-0.861 6.434,-2.291c2.639,1.252 4.152,3.276 4.152,6.018l0,14.646l-15.073,0l0,-12.429c0,-0.201 -0.325,-4.461 -2.915,-7.149zm-0.97,-8.752c0,-4.566 3.717,-8.281 8.285,-8.281c4.564,0 8.277,3.715 8.277,8.281s-3.713,8.282 -8.277,8.282c-4.568,0 -8.285,-3.716 -8.285,-8.282z"/>
  <path id="svg_9" fill="#3c393d" d="m45.854,46.494c-9.824,0 -17.818,-7.995 -17.818,-17.823c0,-9.825 7.994,-17.818 17.818,-17.818c9.826,0 17.822,7.993 17.822,17.818c0,9.828 -7.996,17.823 -17.822,17.823zm0,-30.616c-7.055,0 -12.793,5.739 -12.793,12.793c0,7.058 5.738,12.798 12.793,12.798c7.056,0 12.797,-5.74 12.797,-12.798c-0.001,-7.054 -5.742,-12.793 -12.797,-12.793z"/>
  <path id="svg_10" fill="#3c393d" d="m64.84,79.435c-1.388,0 -2.513,-1.125 -2.513,-2.513l0,-25.274c0,-4.116 -2.343,-7.455 -6.597,-9.399c-1.262,-0.577 -1.816,-2.067 -1.24,-3.33c0.578,-1.263 2.066,-1.818 3.33,-1.24c6.059,2.771 9.532,7.862 9.532,13.97l0,25.273c0.001,1.388 -1.124,2.513 -2.512,2.513z"/>
  <path id="svg_11" fill="#3c393d" d="m27.117,79.437c-1.388,0 -2.513,-1.125 -2.513,-2.513l0,-25.275c0,-6.007 3.341,-11.033 9.167,-13.789c1.256,-0.595 2.752,-0.058 3.346,1.196s0.058,2.752 -1.196,3.346c-4.116,1.947 -6.291,5.145 -6.291,9.247l0,25.274c0,1.389 -1.125,2.514 -2.513,2.514z"/>
  <path id="svg_12" fill="#3c393d" d="m14.85,45.598c-6.41,0 -11.627,-5.218 -11.627,-11.631c0,-6.414 5.217,-11.631 11.627,-11.631c6.416,0 11.636,5.217 11.636,11.631c-0.001,6.413 -5.22,11.631 -11.636,11.631zm0,-18.237c-3.64,0 -6.602,2.963 -6.602,6.605s2.962,6.605 6.602,6.605c3.646,0 6.61,-2.963 6.61,-6.605s-2.965,-6.605 -6.61,-6.605z"/>
  <path id="svg_13" fill="#3c393d" d="m3.692,64.834c-1.388,0 -2.513,-1.125 -2.513,-2.513l0,-14.671c0,-4.032 2.094,-7.245 5.896,-9.047c1.253,-0.592 2.752,-0.06 3.346,1.195c0.595,1.254 0.061,2.752 -1.194,3.346c-2.034,0.964 -3.022,2.438 -3.022,4.506l0,14.671c0,1.388 -1.125,2.513 -2.513,2.513z"/>
  <path id="svg_14" fill="#3c393d" d="m76.954,45.598c-6.413,0 -11.631,-5.218 -11.631,-11.631c0,-6.414 5.218,-11.631 11.631,-11.631s11.63,5.217 11.63,11.631c0,6.413 -5.217,11.631 -11.63,11.631zm0,-18.237c-3.643,0 -6.605,2.963 -6.605,6.605s2.963,6.605 6.605,6.605c3.642,0 6.604,-2.963 6.604,-6.605s-2.962,-6.605 -6.604,-6.605z"/>
  <path id="svg_15" fill="#3c393d" d="m88.26,64.834c-1.387,0 -2.512,-1.125 -2.512,-2.513l0,-14.671c0,-2.109 -1.027,-3.605 -3.143,-4.573c-1.262,-0.577 -1.816,-2.069 -1.238,-3.33c0.578,-1.263 2.07,-1.815 3.33,-1.238c3.918,1.794 6.076,5.04 6.076,9.142l0,14.671c0,1.387 -1.125,2.512 -2.513,2.512z"/>
 </g>
</svg>

<?xml version="1.0" ?><!DOCTYPE svg  PUBLIC '-//W3C//DTD SVG 1.1//EN'  'http://www.w3.org/Graphics/SVG/1.1/DTD/svg11.dtd'><svg enable-background="new 0 0 91 91" height="91px" id="Layer_1" version="1.1" viewBox="0 0 91 91" width="91px" xml:space="preserve" xmlns="http://www.w3.org/2000/svg" xmlns:xlink="http://www.w3.org/1999/xlink"><g><g><path d="M46.177,43.004c7.979,0,14.472-6.493,14.472-14.474c0-7.978-6.492-14.468-14.472-14.468    c-7.978,0-14.468,6.49-14.468,14.468C31.709,36.511,38.199,43.004,46.177,43.004z" fill="#F9EFE3"/><path d="M56.729,40.629c-2.846,2.512-6.578,4.05-10.664,4.05c-4.048,0-7.855-1.51-10.693-3.981    c-0.024,0.016-0.266,0.039-0.293,0.051c-4.676,2.212-7.7,6.033-7.7,10.761v26.024h36.851V51.507    C64.229,46.797,61.489,42.84,56.729,40.629z" fill="#B0E0D4"/></g><path d="M19.003,49.796v12.663H3.928V47.58c0-2.742,1.645-4.767,4.283-6.018c1.724,1.43,4.086,2.291,6.495,2.291   c2.271,0,4.435-0.771,6.112-2.057l1.209,0.851C19.439,45.336,19.003,49.595,19.003,49.796z M14.859,42.178   c-4.564,0-8.277-3.715-8.277-8.281s3.713-8.281,8.277-8.281c4.568,0,8.285,3.715,8.285,8.281S19.428,42.178,14.859,42.178z" fill="#E0F1F8"/><path d="M69.689,42.881l1.324-0.85c1.679,1.283,3.808,2.055,6.078,2.055c2.409,0,4.709-0.861,6.434-2.291   c2.639,1.252,4.152,3.276,4.152,6.018v14.646H72.604V50.03C72.604,49.829,72.279,45.569,69.689,42.881z M68.719,34.129   c0-4.566,3.717-8.281,8.285-8.281c4.564,0,8.277,3.715,8.277,8.281s-3.713,8.282-8.277,8.282   C72.436,42.411,68.719,38.695,68.719,34.129z" fill="#E0F1F8"/><g><g><path d="M45.854,46.494c-9.824,0-17.818-7.995-17.818-17.823c0-9.825,7.994-17.818,17.818-17.818     c9.826,0,17.822,7.993,17.822,17.818C63.676,38.499,55.68,46.494,45.854,46.494z M45.854,15.878     c-7.055,0-12.793,5.739-12.793,12.793c0,7.058,5.738,12.798,12.793,12.798c7.056,0,12.797-5.74,12.797-12.798     C58.65,21.617,52.909,15.878,45.854,15.878z" fill="#454B53"/><path d="M64.84,79.435c-1.388,0-2.513-1.125-2.513-2.513V51.648c0-4.116-2.343-7.455-6.597-9.399     c-1.262-0.577-1.816-2.067-1.24-3.33c0.578-1.263,2.066-1.818,3.33-1.24c6.059,2.771,9.532,7.862,9.532,13.97v25.273     C67.353,78.31,66.228,79.435,64.84,79.435z" fill="#454B53"/><path d="M27.117,79.437c-1.388,0-2.513-1.125-2.513-2.513V51.649c0-6.007,3.341-11.033,9.167-13.789     c1.256-0.595,2.752-0.058,3.346,1.196s0.058,2.752-1.196,3.346c-4.116,1.947-6.291,5.145-6.291,9.247v25.274     C29.63,78.312,28.505,79.437,27.117,79.437z" fill="#454B53"/><path d="M14.85,45.598c-6.41,0-11.627-5.218-11.627-11.631c0-6.414,5.217-11.631,11.627-11.631     c6.416,0,11.636,5.217,11.636,11.631C26.485,40.38,21.266,45.598,14.85,45.598z M14.85,27.361c-3.64,0-6.602,2.963-6.602,6.605     s2.962,6.605,6.602,6.605c3.646,0,6.61-2.963,6.61-6.605S18.495,27.361,14.85,27.361z" fill="#454B53"/><path d="M3.692,64.834c-1.388,0-2.513-1.125-2.513-2.513V47.65c0-4.032,2.094-7.245,5.896-9.047     c1.253-0.592,2.752-0.06,3.346,1.195c0.595,1.254,0.061,2.752-1.194,3.346c-2.034,0.964-3.022,2.438-3.022,4.506v14.671     C6.205,63.709,5.08,64.834,3.692,64.834z" fill="#454B53"/><path d="M76.954,45.598c-6.413,0-11.631-5.218-11.631-11.631c0-6.414,5.218-11.631,11.631-11.631     s11.63,5.217,11.63,11.631C88.584,40.38,83.367,45.598,76.954,45.598z M76.954,27.361c-3.643,0-6.605,2.963-6.605,6.605     s2.963,6.605,6.605,6.605c3.642,0,6.604-2.963,6.604-6.605S80.596,27.361,76.954,27.361z" fill="#454B53"/><path d="M88.26,64.834c-1.387,0-2.512-1.125-2.512-2.513V47.65c0-2.109-1.027-3.605-3.143-4.573     c-1.262-0.577-1.816-2.069-1.238-3.33c0.578-1.263,2.07-1.815,3.33-1.238c3.918,1.794,6.076,5.04,6.076,9.142v14.671     C90.773,63.709,89.648,64.834,88.26,64.834z" fill="#454B53"/></g></g></g></svg>
